;FLAVOR:Marlin
;TIME:1277
;Filament used: 0.781741m
;Layer height: 0.2
;MINX:39.653
;MINY:115.2
;MINZ:0.2
;MAXX:195.734
;MAXY:120.083
;MAXZ:5
;Generated with Cura_SteamEngine 4.12.1
M140 S65
M105
M190 S65
M104 S210
M105
M109 S210
M82 ;absolute extrusion mode

; Script based on an original created by tjjfvi (https://github.com/tjjfvi)
; An up-to-date version of the tjjfvi's original script can be found
; here:  https://csi.t6.fyi/
; Note - This script will not work in Cura V4.2 and above!
; max_feedrate_z_override = {max_feedrate_z_override}
; retraction_amount = 6.5
; retraction_hop = 0.2
; retraction_hop_enabled = False
; retraction_prime_speed = 25
; retraction_retract_speed = 25
; retraction_speed = 25
; speed_travel = 150.0
; retraction_enable = True
; layer_height = 0.2
; smooth_spiralized_contours = True

; Ender 3 Custom Start G-code
G92 E0 ; Reset Extruder
G28 ; Home all axes
G29 ; Auto Bed Level (BL-Touch)
G1 Z2.0 F3000 ; Move Z Axis up little to prevent scratching of Heat Bed
G1 X0.1 Y20 Z0.3 F5000.0 ; Move to start position
G1 X0.1 Y200.0 Z0.3 F1500.0 E15 ; Draw the first line
G1 X0.4 Y200.0 Z0.3 F5000.0 ; Move to side a little
G1 X0.4 Y20 Z0.3 F1500.0 E30 ; Draw the second line
G92 E0 ; Reset Extruder
G1 Z2.0 F3000 ; Move Z Axis up little to prevent scratching of Heat Bed
G1 X5 Y20 Z0.3 F5000.0 ; Move over to prevent blob squish
G92 E0
G92 E0
G1 F1500 E-6.5
;LAYER_COUNT:25
;LAYER:0
M107
;MESH:crochet v2.stl
G0 F6000 X49.78 Y117.5 Z0.2
;TYPE:WALL-INNER
G1 F1500 E0
G1 F1200 X49.94 Y117.447 E0.00561
G1 X50.2 Y117.417 E0.01431
G1 X195.334 Y117.417 E4.84149
G1 X195.334 Y117.583 E4.84701
G1 X50.198 Y117.583 E6.85535
G1 X49.943 Y117.554 E6.85824
G1 X49.78 Y117.5 E6.85928
G0 F6000 X49.242 Y117.5
G0 X48.504 Y117.5
;TYPE:WALL-OUTER
G1 F1200 X49.852 Y117.055 E6.9065
G1 X50.18 Y117.017 E6.91748
G1 X195.734 Y117.017 E11.75863
G1 X195.734 Y117.983 E11.79075
G1 X50.179 Y117.983 E16.63193
G1 X49.853 Y117.946 E16.64285
G1 X48.504 Y117.5 E16.6901
G0 F6000 X49.266 Y117.432
;TYPE:SKIN
G1 F1200 X49.469 Y117.634 E16.69486
G0 F6000 X49.619 Y117.502
G1 F1200 X49.479 Y117.362 E16.69816
G1 F1500 E10.19816
;MESH:NONMESH
G0 F300 X49.479 Y117.362 Z0.4
G0 F6000 X49.518 Y117.482
G0 X49.162 Y117.5
G0 X47.336 Y117.5
;TIME_ELAPSED:34.658492
;LAYER:1
M106 S85
;TYPE:WALL-INNER
;MESH:crochet v2.stl
G1 F1500 E16.69816
G1 F1350 X47.403 Y117.433 E16.70131
G1 X48.206 Y117.16 E16.72952
G1 X50.197 Y116.935 E16.79616
G1 X195.334 Y116.935 E21.62344
G1 X195.334 Y118.065 E21.66102
G1 X50.197 Y118.065 E26.4883
G1 X48.206 Y117.84 E26.55494
G1 X47.403 Y117.567 E26.58315
G1 X47.336 Y117.5 E26.58517
G0 F7500 X46.773 Y117.499
;TYPE:WALL-OUTER
G1 F1350 X47.185 Y117.084 E26.60462
G1 X48.115 Y116.768 E26.63729
G1 X50.179 Y116.535 E26.70638
G1 X195.734 Y116.535 E31.54756
G1 X195.734 Y118.465 E31.61175
G1 X50.179 Y118.465 E36.45293
G1 X48.115 Y118.232 E36.52201
G1 X47.185 Y117.916 E36.55468
G1 X46.773 Y117.499 E36.57418
G0 F7500 X47.155 Y117.499
G0 X48.643 Y117.777
G0 X48.675 Y117.5
;TYPE:SKIN
G1 F1350 X50.222 Y117.325 E36.62596
G1 X194.944 Y117.325 E41.43943
G1 X194.944 Y117.675 E41.45107
G1 X50.222 Y117.675 E46.26455
G1 X48.675 Y117.5 E46.31633
G0 F7500 X48.499 Y117.528
;TYPE:SKIN
G1 F1350 X48.335 Y117.692 E46.32019
G0 F7500 X48.108 Y117.637
G1 F1350 X48.453 Y117.292 E46.3283
G0 F7500 X48.099 Y117.363
G1 F1350 X47.896 Y117.566 E46.33307
G0 F7500 X47.909 Y117.53
;MESH:NONMESH
G0 F300 X47.909 Y117.53 Z0.6
G0 F7500 X47.88 Y117.612
G0 X50.197 Y118.166
G0 X50.181 Y118.365
;TIME_ELAPSED:75.331136
;LAYER:2
M106 S170
;TYPE:WALL-INNER
;MESH:crochet v2.stl
G1 F1500 X48.163 Y118.221 E46.40036
G1 X47.479 Y118.075 E46.42363
G1 X46.246 Y117.655 E46.46695
G1 X46.143 Y117.596 E46.4709
G1 X46.086 Y117.499 E46.47464
G1 X46.139 Y117.408 E46.47814
G1 X46.25 Y117.345 E46.48239
G1 X47.476 Y116.926 E46.52548
G1 X48.164 Y116.779 E46.54888
G1 X50.181 Y116.635 E46.61614
G1 X195.334 Y116.635 E51.44395
G1 X195.334 Y118.365 E51.50149
G1 X50.181 Y118.365 E56.32929
G0 F9000 X50.166 Y118.765
;TYPE:WALL-OUTER
G1 F1500 X48.109 Y118.618 E56.39788
G1 X47.367 Y118.46 E56.42312
G1 X46.083 Y118.023 E56.46823
G1 X45.851 Y117.889 E56.47714
G1 X45.621 Y117.499 E56.4922
G1 X45.848 Y117.113 E56.50709
G1 X46.085 Y116.978 E56.51616
G1 X47.366 Y116.541 E56.56118
G1 X48.109 Y116.382 E56.58645
G1 X50.166 Y116.235 E56.65504
G1 X195.734 Y116.235 E61.49665
G1 X195.734 Y118.765 E61.5808
G1 X50.166 Y118.765 E66.42241
G0 F9000 X50.181 Y118.326
G0 X50.195 Y117.975
;TYPE:SKIN
G1 F1500 X48.221 Y117.834 E66.48824
G1 X47.576 Y117.696 E66.51018
G1 X47.001 Y117.501 E66.53037
G1 X47.574 Y117.305 E66.55051
G1 X48.224 Y117.166 E66.57262
G1 X50.195 Y117.025 E66.63834
G1 X194.944 Y117.025 E71.45271
G1 X194.944 Y117.975 E71.48431
G1 X50.195 Y117.975 E76.29868
G0 F9000 X50.195 Y118.255
G0 X48.188 Y118.052
G0 X47.53 Y117.912
G0 X46.405 Y117.501
G0 X47.743 Y116.981
G0 X47.834 Y117.413
G1 F1500 X48.053 Y117.632 E76.30898
G0 F9000 X48.304 Y117.318
G1 F1500 X48.692 Y117.706 E76.32723
G0 F9000 X48.832 Y117.28
G1 F1500 X49.302 Y117.75 E76.34934
G0 F9000 X49.361 Y117.243
G1 F1500 X49.911 Y117.794 E76.37524
G0 F9000 X50.498 Y117.814
G1 F1500 X49.889 Y117.205 E76.40388
G0 F9000 X50.433 Y117.184
G1 F1500 X51.063 Y117.814 E76.43351
G0 F9000 X51.629 Y117.814
G1 F1500 X50.999 Y117.184 E76.46315
G0 F9000 X51.565 Y117.184
G1 F1500 X52.195 Y117.814 E76.49278
G0 F9000 X52.76 Y117.814
G1 F1500 X52.13 Y117.184 E76.52241
G0 F9000 X52.696 Y117.184
G1 F1500 X53.326 Y117.814 E76.55205
G0 F9000 X53.892 Y117.814
G1 F1500 X53.262 Y117.184 E76.58168
G0 F9000 X53.827 Y117.184
G1 F1500 X54.457 Y117.814 E76.61131
G0 F9000 X55.023 Y117.814
G1 F1500 X54.393 Y117.184 E76.64095
G0 F9000 X54.959 Y117.184
G1 F1500 X55.589 Y117.814 E76.67058
G0 F9000 X56.154 Y117.814
G1 F1500 X55.524 Y117.184 E76.70021
G0 F9000 X56.09 Y117.184
G1 F1500 X56.72 Y117.814 E76.72985
G0 F9000 X57.286 Y117.814
G1 F1500 X56.656 Y117.184 E76.75948
G0 F9000 X57.221 Y117.184
G1 F1500 X57.851 Y117.814 E76.78911
G0 F9000 X58.417 Y117.814
G1 F1500 X57.787 Y117.184 E76.81875
G0 F9000 X58.353 Y117.184
G1 F1500 X58.983 Y117.814 E76.84838
G0 F9000 X59.548 Y117.814
G1 F1500 X58.918 Y117.184 E76.87801
G0 F9000 X59.484 Y117.184
G1 F1500 X60.114 Y117.814 E76.90765
G0 F9000 X60.68 Y117.814
G1 F1500 X60.05 Y117.184 E76.93728
G0 F9000 X60.616 Y117.184
G1 F1500 X61.246 Y117.814 E76.96691
G0 F9000 X61.811 Y117.814
G1 F1500 X61.181 Y117.184 E76.99655
G0 F9000 X61.747 Y117.184
G1 F1500 X62.377 Y117.814 E77.02618
G0 F9000 X62.943 Y117.814
G1 F1500 X62.313 Y117.184 E77.05581
G0 F9000 X62.878 Y117.184
G1 F1500 X63.508 Y117.814 E77.08545
G0 F9000 X64.074 Y117.814
G1 F1500 X63.444 Y117.184 E77.11508
G0 F9000 X64.01 Y117.184
G1 F1500 X64.64 Y117.814 E77.14471
G0 F9000 X65.205 Y117.814
G1 F1500 X64.575 Y117.184 E77.17435
G0 F9000 X65.141 Y117.184
G1 F1500 X65.771 Y117.814 E77.20398
G0 F9000 X66.337 Y117.814
G1 F1500 X65.707 Y117.184 E77.23361
G0 F9000 X66.272 Y117.184
G1 F1500 X66.902 Y117.814 E77.26325
G0 F9000 X67.468 Y117.814
G1 F1500 X66.838 Y117.184 E77.29288
G0 F9000 X67.404 Y117.184
G1 F1500 X68.034 Y117.814 E77.32251
G0 F9000 X68.599 Y117.814
G1 F1500 X67.969 Y117.184 E77.35215
G0 F9000 X68.535 Y117.184
G1 F1500 X69.165 Y117.814 E77.38178
G0 F9000 X69.731 Y117.814
G1 F1500 X69.101 Y117.184 E77.41141
G0 F9000 X69.666 Y117.184
G1 F1500 X70.297 Y117.814 E77.44107
G0 F9000 X70.862 Y117.814
G1 F1500 X70.232 Y117.184 E77.4707
G0 F9000 X70.798 Y117.184
G1 F1500 X71.428 Y117.814 E77.50034
G0 F9000 X71.994 Y117.814
G1 F1500 X71.364 Y117.184 E77.52997
G0 F9000 X71.929 Y117.184
G1 F1500 X72.559 Y117.814 E77.5596
G0 F9000 X73.125 Y117.814
G1 F1500 X72.495 Y117.184 E77.58924
G0 F9000 X73.061 Y117.184
G1 F1500 X73.691 Y117.814 E77.61887
G0 F9000 X74.256 Y117.814
G1 F1500 X73.626 Y117.184 E77.6485
G0 F9000 X74.192 Y117.184
G1 F1500 X74.822 Y117.814 E77.67813
G0 F9000 X75.388 Y117.814
G1 F1500 X74.758 Y117.184 E77.70777
G0 F9000 X75.323 Y117.184
G1 F1500 X75.953 Y117.814 E77.7374
G0 F9000 X76.519 Y117.814
G1 F1500 X75.889 Y117.184 E77.76703
G0 F9000 X76.455 Y117.184
G1 F1500 X77.085 Y117.814 E77.79667
G0 F9000 X77.65 Y117.814
G1 F1500 X77.02 Y117.184 E77.8263
G0 F9000 X77.586 Y117.184
G1 F1500 X78.216 Y117.814 E77.85593
G0 F9000 X78.782 Y117.814
G1 F1500 X78.152 Y117.184 E77.88557
G0 F9000 X78.717 Y117.184
G1 F1500 X79.347 Y117.814 E77.9152
G0 F9000 X79.913 Y117.814
G1 F1500 X79.283 Y117.184 E77.94483
G0 F9000 X79.849 Y117.184
G1 F1500 X80.479 Y117.814 E77.97447
G0 F9000 X81.045 Y117.814
G1 F1500 X80.415 Y117.184 E78.0041
G0 F9000 X80.98 Y117.184
G1 F1500 X81.61 Y117.814 E78.03373
G0 F9000 X82.176 Y117.814
G1 F1500 X81.546 Y117.184 E78.06337
G0 F9000 X82.112 Y117.184
G1 F1500 X82.742 Y117.814 E78.093
G0 F9000 X83.307 Y117.814
G1 F1500 X82.677 Y117.184 E78.12263
G0 F9000 X83.243 Y117.184
G1 F1500 X83.873 Y117.814 E78.15227
G0 F9000 X84.439 Y117.814
G1 F1500 X83.809 Y117.184 E78.1819
G0 F9000 X84.374 Y117.184
G1 F1500 X85.004 Y117.814 E78.21153
G0 F9000 X85.57 Y117.814
G1 F1500 X84.94 Y117.184 E78.24117
G0 F9000 X85.506 Y117.184
G1 F1500 X86.136 Y117.814 E78.2708
G0 F9000 X86.701 Y117.814
G1 F1500 X86.071 Y117.184 E78.30043
G0 F9000 X86.637 Y117.184
G1 F1500 X87.267 Y117.814 E78.33007
G0 F9000 X87.833 Y117.814
G1 F1500 X87.203 Y117.184 E78.3597
G0 F9000 X87.768 Y117.184
G1 F1500 X88.398 Y117.814 E78.38933
G0 F9000 X88.964 Y117.814
G1 F1500 X88.334 Y117.184 E78.41897
G0 F9000 X88.9 Y117.184
G1 F1500 X89.53 Y117.814 E78.4486
G0 F9000 X90.096 Y117.814
G1 F1500 X89.465 Y117.184 E78.47826
G0 F9000 X90.031 Y117.184
G1 F1500 X90.661 Y117.814 E78.50789
G0 F9000 X91.227 Y117.814
G1 F1500 X90.597 Y117.184 E78.53752
G0 F9000 X91.163 Y117.184
G1 F1500 X91.793 Y117.814 E78.56716
G0 F9000 X92.358 Y117.814
G1 F1500 X91.728 Y117.184 E78.59679
G0 F9000 X92.294 Y117.184
G1 F1500 X92.924 Y117.814 E78.62642
G0 F9000 X93.49 Y117.814
G1 F1500 X92.86 Y117.184 E78.65606
G0 F9000 X93.425 Y117.184
G1 F1500 X94.055 Y117.814 E78.68569
G0 F9000 X94.621 Y117.814
G1 F1500 X93.991 Y117.184 E78.71532
G0 F9000 X94.557 Y117.184
G1 F1500 X95.187 Y117.814 E78.74496
G0 F9000 X95.752 Y117.814
G1 F1500 X95.122 Y117.184 E78.77459
G0 F9000 X95.688 Y117.184
G1 F1500 X96.318 Y117.814 E78.80422
G0 F9000 X96.884 Y117.814
G1 F1500 X96.254 Y117.184 E78.83386
G0 F9000 X96.819 Y117.184
G1 F1500 X97.449 Y117.814 E78.86349
G0 F9000 X98.015 Y117.814
G1 F1500 X97.385 Y117.184 E78.89312
G0 F9000 X97.951 Y117.184
G1 F1500 X98.581 Y117.814 E78.92276
G0 F9000 X99.146 Y117.814
G1 F1500 X98.516 Y117.184 E78.95239
G0 F9000 X99.082 Y117.184
G1 F1500 X99.712 Y117.814 E78.98202
G0 F9000 X100.278 Y117.814
G1 F1500 X99.648 Y117.184 E79.01166
G0 F9000 X100.214 Y117.184
G1 F1500 X100.844 Y117.814 E79.04129
G0 F9000 X101.409 Y117.814
G1 F1500 X100.779 Y117.184 E79.07092
G0 F9000 X101.345 Y117.184
G1 F1500 X101.975 Y117.814 E79.10056
G0 F9000 X102.541 Y117.814
G1 F1500 X101.911 Y117.184 E79.13019
G0 F9000 X102.476 Y117.184
G1 F1500 X103.106 Y117.814 E79.15982
G0 F9000 X103.672 Y117.814
G1 F1500 X103.042 Y117.184 E79.18946
G0 F9000 X103.608 Y117.184
G1 F1500 X104.238 Y117.814 E79.21909
G0 F9000 X104.803 Y117.814
G1 F1500 X104.173 Y117.184 E79.24872
G0 F9000 X104.739 Y117.184
G1 F1500 X105.369 Y117.814 E79.27835
G0 F9000 X105.935 Y117.814
G1 F1500 X105.305 Y117.184 E79.30799
G0 F9000 X105.87 Y117.184
G1 F1500 X106.5 Y117.814 E79.33762
G0 F9000 X107.066 Y117.814
G1 F1500 X106.436 Y117.184 E79.36725
G0 F9000 X107.002 Y117.184
G1 F1500 X107.632 Y117.814 E79.39689
G0 F9000 X108.197 Y117.814
G1 F1500 X107.567 Y117.184 E79.42652
G0 F9000 X108.133 Y117.184
G1 F1500 X108.763 Y117.814 E79.45615
G0 F9000 X109.329 Y117.814
G1 F1500 X108.699 Y117.184 E79.48579
G0 F9000 X109.264 Y117.184
G1 F1500 X109.895 Y117.814 E79.51544
G0 F9000 X110.46 Y117.814
G1 F1500 X109.83 Y117.184 E79.54508
G0 F9000 X110.396 Y117.184
G1 F1500 X111.026 Y117.814 E79.57471
G0 F9000 X111.592 Y117.814
G1 F1500 X110.962 Y117.184 E79.60434
G0 F9000 X111.527 Y117.184
G1 F1500 X112.157 Y117.814 E79.63398
G0 F9000 X112.723 Y117.814
G1 F1500 X112.093 Y117.184 E79.66361
G0 F9000 X112.659 Y117.184
G1 F1500 X113.289 Y117.814 E79.69324
G0 F9000 X113.854 Y117.814
G1 F1500 X113.224 Y117.184 E79.72288
G0 F9000 X113.79 Y117.184
G1 F1500 X114.42 Y117.814 E79.75251
G0 F9000 X114.986 Y117.814
G1 F1500 X114.356 Y117.184 E79.78214
G0 F9000 X114.921 Y117.184
G1 F1500 X115.551 Y117.814 E79.81178
G0 F9000 X116.117 Y117.814
G1 F1500 X115.487 Y117.184 E79.84141
G0 F9000 X116.053 Y117.184
G1 F1500 X116.683 Y117.814 E79.87104
G0 F9000 X117.248 Y117.814
G1 F1500 X116.618 Y117.184 E79.90068
G0 F9000 X117.184 Y117.184
G1 F1500 X117.814 Y117.814 E79.93031
G0 F9000 X118.38 Y117.814
G1 F1500 X117.75 Y117.184 E79.95994
G0 F9000 X118.315 Y117.184
G1 F1500 X118.945 Y117.814 E79.98958
G0 F9000 X119.511 Y117.814
G1 F1500 X118.881 Y117.184 E80.01921
G0 F9000 X119.447 Y117.184
G1 F1500 X120.077 Y117.814 E80.04884
G0 F9000 X120.643 Y117.814
G1 F1500 X120.012 Y117.184 E80.0785
G0 F9000 X120.578 Y117.184
G1 F1500 X121.208 Y117.814 E80.10813
G0 F9000 X121.774 Y117.814
G1 F1500 X121.144 Y117.184 E80.13777
G0 F9000 X121.71 Y117.184
G1 F1500 X122.34 Y117.814 E80.1674
G0 F9000 X122.905 Y117.814
G1 F1500 X122.275 Y117.184 E80.19703
G0 F9000 X122.842 Y117.185
G1 F1500 X123.471 Y117.814 E80.22662
G0 F9000 X124.037 Y117.814
G1 F1500 X123.407 Y117.185 E80.25623
G0 F9000 X123.973 Y117.185
G1 F1500 X124.602 Y117.814 E80.28582
G0 F9000 X125.168 Y117.814
G1 F1500 X124.539 Y117.185 E80.3154
G0 F9000 X125.104 Y117.185
G1 F1500 X125.734 Y117.814 E80.34501
G0 F9000 X126.299 Y117.814
G1 F1500 X125.67 Y117.185 E80.3746
G0 F9000 X126.236 Y117.185
G1 F1500 X126.865 Y117.814 E80.40418
G0 F9000 X127.431 Y117.814
G1 F1500 X126.801 Y117.185 E80.43379
G0 F9000 X127.367 Y117.185
G1 F1500 X127.996 Y117.814 E80.46338
G0 F9000 X128.562 Y117.814
G1 F1500 X127.933 Y117.185 E80.49297
G0 F9000 X128.498 Y117.185
G1 F1500 X129.128 Y117.814 E80.52258
G0 F9000 X129.693 Y117.814
G1 F1500 X129.064 Y117.185 E80.55216
G0 F9000 X129.63 Y117.185
G1 F1500 X130.259 Y117.814 E80.58175
G0 F9000 X130.825 Y117.814
G1 F1500 X130.196 Y117.185 E80.61133
G0 F9000 X130.761 Y117.185
G1 F1500 X131.391 Y117.814 E80.64094
G0 F9000 X131.956 Y117.814
G1 F1500 X131.327 Y117.185 E80.67053
G0 F9000 X131.893 Y117.185
G1 F1500 X132.522 Y117.814 E80.70012
G0 F9000 X133.088 Y117.814
G1 F1500 X132.458 Y117.185 E80.72973
G0 F9000 X133.024 Y117.185
G1 F1500 X133.653 Y117.814 E80.75931
G0 F9000 X134.219 Y117.814
G1 F1500 X133.59 Y117.185 E80.7889
G0 F9000 X134.155 Y117.185
G1 F1500 X134.785 Y117.814 E80.81851
G0 F9000 X135.35 Y117.814
G1 F1500 X134.721 Y117.185 E80.8481
G0 F9000 X135.287 Y117.185
G1 F1500 X135.916 Y117.814 E80.87768
G0 F9000 X136.482 Y117.814
G1 F1500 X135.852 Y117.185 E80.90729
G0 F9000 X136.418 Y117.185
G1 F1500 X137.047 Y117.814 E80.93688
G0 F9000 X137.613 Y117.814
G1 F1500 X136.984 Y117.185 E80.96646
G0 F9000 X137.549 Y117.185
G1 F1500 X138.179 Y117.814 E80.99607
G0 F9000 X138.744 Y117.814
G1 F1500 X138.115 Y117.185 E81.02566
G0 F9000 X138.681 Y117.185
G1 F1500 X139.31 Y117.814 E81.05525
G0 F9000 X139.876 Y117.814
G1 F1500 X139.247 Y117.185 E81.08483
G0 F9000 X139.812 Y117.185
G1 F1500 X140.442 Y117.814 E81.11444
G0 F9000 X141.007 Y117.814
G1 F1500 X140.378 Y117.185 E81.14403
G0 F9000 X140.944 Y117.185
G1 F1500 X141.573 Y117.814 E81.17361
G0 F9000 X142.139 Y117.814
G1 F1500 X141.509 Y117.185 E81.20322
G0 F9000 X142.075 Y117.185
G1 F1500 X142.704 Y117.814 E81.23281
G0 F9000 X143.27 Y117.814
G1 F1500 X142.641 Y117.185 E81.2624
G0 F9000 X143.206 Y117.185
G1 F1500 X143.836 Y117.814 E81.29201
G0 F9000 X144.401 Y117.814
G1 F1500 X143.772 Y117.185 E81.32159
G0 F9000 X144.338 Y117.185
G1 F1500 X144.967 Y117.814 E81.35118
G0 F9000 X145.533 Y117.814
G1 F1500 X144.903 Y117.185 E81.38079
G0 F9000 X145.469 Y117.185
G1 F1500 X146.098 Y117.814 E81.41037
G0 F9000 X146.664 Y117.814
G1 F1500 X146.035 Y117.185 E81.43996
G0 F9000 X146.6 Y117.185
G1 F1500 X147.23 Y117.814 E81.46957
G0 F9000 X147.795 Y117.814
G1 F1500 X147.166 Y117.185 E81.49916
G0 F9000 X147.732 Y117.185
G1 F1500 X148.361 Y117.814 E81.52874
